X: 1
T: Timmy Clifford's
R: Jig
M: 6/8
L: 1/8
K: G
|:G,B,D E2 D|DB,D GDB, |G,B,D C2B|AGF GDB,|
G,B,D E2 D|DB,D GAB|ddd BBB|1 AGF GDB,:|2 AGF GBd||
|:efe d2 B|BAG ABd|efe d2 B|BAG ABd|
efe d2 B|BAG GAB|ccc BBB|1 AGF GBd:|2 AGF G3||